images/icon-services-3.svg

<svg width="48" height="48" viewBox="0 0 48 48" fill="none" xmlns="http://www.w3.org/2000/svg">
<path fill-rule="evenodd" clip-rule="evenodd" d="M13.3016 1.17833C12.391 1.39304 11.2267 2.20856 10.5604 3.09835C9.24779 4.85149 8.36719 8.18289 8.36719 11.3957C8.36719 12.4235 8.37288 12.4528 8.60907 12.6385L8.85096 12.8288H20.8939H32.9367L33.1364 12.6164C33.4098 12.3252 33.4038 11.823 33.1235 11.5596L32.911 11.3601H21.3821H9.85338L9.89597 10.7863C10.2176 6.45885 11.3163 3.54118 12.9111 2.77908C13.4662 2.51388 14.27 2.49084 14.9253 2.72134C15.2253 2.82691 15.5069 2.94937 15.551 2.99352C15.5968 3.03933 15.4416 3.18455 15.1892 3.33197C13.9439 4.05919 13.57 4.5112 13.7847 5.02957C14.0213 5.6011 14.5328 5.63626 15.1976 5.12679C16.346 4.24673 17.5095 3.80427 18.6943 3.79729C19.9911 3.78958 21.0516 4.24618 22.3662 5.37813C22.6691 5.63892 23.2475 6.0163 23.6514 6.21669C25.1003 6.93565 26.3412 6.93243 27.8224 6.20604C28.4973 5.87512 28.7398 5.68179 29.7043 4.70498C31.5095 2.87685 32.0287 2.54316 33.1735 2.47478C33.8033 2.43714 33.9386 2.45963 34.3782 2.67471C34.9242 2.94184 35.5584 3.5656 35.9319 4.20294C36.6829 5.48461 37.3678 8.13323 37.6816 10.9699L37.7247 11.3601H36.3667C35.171 11.3601 34.983 11.3808 34.794 11.5338C34.4906 11.7796 34.4906 12.4093 34.794 12.655C34.9893 12.8132 35.1815 12.8288 36.9303 12.8288H38.8521L39.0911 12.5898L39.3302 12.3507L39.2723 11.1899C39.1752 9.24535 38.8138 7.46219 38.114 5.47534C37.4283 3.52888 36.3505 2.13348 35.0274 1.47961C34.438 1.18833 34.2209 1.13114 33.5744 1.09718C33.1564 1.07524 32.5983 1.1037 32.3342 1.16034C31.7514 1.28527 30.9524 1.65329 30.5759 1.97017L30.2983 2.2037L29.6829 1.92611C28.8506 1.55066 28.3004 1.38506 27.3342 1.21899C25.1299 0.840057 22.7138 1.24543 20.9942 2.28255L20.3886 2.64781L19.8325 2.53839C19.4869 2.47046 18.8986 2.44898 18.2778 2.48175L17.2789 2.53444L16.8385 2.18369C15.7217 1.29454 14.4011 0.919094 13.3016 1.17833ZM24.9824 2.60338C24.3048 2.68003 23.5366 2.83994 22.9629 3.02363C21.9328 3.35355 21.9426 3.30985 22.7513 3.97336C24.9126 5.74642 26.4539 5.71135 28.5721 3.8409L29.1346 3.34418L28.8857 3.21374C28.173 2.84031 25.9545 2.49341 24.9824 2.60338ZM33.4655 4.15383C33.1621 4.45722 33.1815 4.59987 33.7431 6.18842C33.9781 6.85294 34.2726 7.88565 34.3978 8.48334C34.6481 9.67973 34.7843 9.89132 35.3037 9.89132C35.4988 9.89132 35.671 9.81458 35.8114 9.66504C35.9994 9.46492 36.0172 9.38047 35.965 8.93636C35.834 7.82158 34.8861 4.66468 34.5429 4.19991C34.2922 3.86054 33.7807 3.8386 33.4655 4.15383ZM23.2543 14.51C23.0669 14.7095 23.0547 14.8103 23.0547 16.161V17.5996L22.7563 17.4177C22.5923 17.3176 22.3632 17.2356 22.2473 17.2354C21.9339 17.2349 21.5859 17.6285 21.5859 17.9834C21.5859 18.2387 21.7207 18.4159 22.5316 19.2269C23.8 20.4951 23.7781 20.4951 25.0465 19.2269C26.084 18.1893 26.1826 17.9609 25.8019 17.477C25.5646 17.1752 25.1119 17.1526 24.7653 17.4254L24.5234 17.6156V16.1562C24.5234 14.7494 24.5158 14.6895 24.311 14.4971C24.0198 14.2237 23.5176 14.2297 23.2543 14.51ZM18.208 21.8269C16.9472 22.1572 15.7263 22.9784 14.9932 23.9893L14.5656 24.5788H11.666H8.76641L8.56675 24.7912C8.40271 24.9659 8.36719 25.1135 8.36719 25.6211C8.36719 26.9621 8.68361 28.9741 9.15021 30.6C9.59791 32.16 9.97675 32.6274 10.5885 32.374C10.7579 32.3039 10.9172 32.1411 10.9922 31.9615C11.1037 31.6947 11.093 31.597 10.8858 30.9905C10.437 29.6764 10.0886 28.0692 9.89882 26.4377L9.85338 26.0476H23.8019H37.7505L37.7041 26.3459C37.6786 26.51 37.6309 26.9738 37.5983 27.3766C37.4731 28.9222 37.02 30.6047 34.9528 37.2009C33.8135 40.836 32.7907 43.9882 32.68 44.2056C32.3846 44.786 31.8161 45.0945 31.041 45.0951C30.3695 45.0955 29.8553 44.8937 29.6224 44.5382C29.5431 44.4171 29.0447 42.5806 28.5148 40.4568C27.9677 38.2643 27.4559 36.409 27.3303 36.1639C26.4196 34.3858 23.8597 33.8487 22.3058 35.1098C21.4101 35.8367 21.3303 36.0373 20.3505 40.0231C19.8634 42.0051 19.4173 43.7484 19.3593 43.8971C19.2177 44.2603 18.7774 44.7498 18.4283 44.9324C17.7475 45.2885 16.4126 45.0056 15.993 44.4164C15.8951 44.2787 15.3313 42.8759 14.7402 41.2988C13.7853 38.7512 13.6368 38.4166 13.4077 38.2981C13.2658 38.2248 13.0707 38.1648 12.974 38.1648C12.7244 38.1648 12.3454 38.488 12.2775 38.7588C12.198 39.0752 14.4045 44.9487 14.7764 45.4109C15.4869 46.2936 16.5855 46.7549 17.8072 46.6833C19.1112 46.6069 20.1183 45.9462 20.6281 44.8325C20.7487 44.5693 21.2399 42.7542 21.7198 40.7991C22.1996 38.844 22.6513 37.1313 22.7235 36.9932C22.8767 36.6999 23.2805 36.3087 23.6007 36.1435C23.9379 35.9694 24.6997 35.9925 25.1078 36.189C25.8062 36.5253 25.8738 36.7012 26.9017 40.8655C27.7853 44.4446 27.8681 44.7214 28.2083 45.2308C28.6392 45.876 29.4278 46.4433 30.1268 46.611C30.3953 46.6754 30.909 46.7065 31.315 46.683C32.2413 46.6294 32.8834 46.3248 33.5059 45.6435C33.8949 45.2181 34.0105 44.998 34.2877 44.156C34.787 42.6392 38.0883 31.9104 38.3908 30.821C38.7837 29.4069 39.0247 27.8366 39.0894 26.269C39.1466 24.886 39.1463 24.8837 38.9288 24.7314C38.7374 24.5973 38.3722 24.5788 35.9064 24.5788H33.1017L32.6548 23.9873C32.0931 23.2436 31.3632 22.6414 30.5348 22.2381C29.3312 21.6522 29.233 21.6436 23.7891 21.6477C19.2551 21.6511 18.8264 21.6649 18.208 21.8269ZM18.973 23.2122C18.3066 23.3093 17.264 23.7959 16.7666 24.2419L16.3994 24.5712L23.8315 24.575L31.2635 24.5788L30.9457 24.3037C30.4405 23.8663 29.2295 23.3075 28.5625 23.2041C27.8374 23.0915 19.7542 23.0984 18.973 23.2122ZM10.8875 34.0757C10.5884 34.3746 10.6008 34.6615 10.9513 35.5485C11.3064 36.4477 11.5128 36.696 11.9049 36.696C12.2717 36.696 12.6816 36.3128 12.6816 35.97C12.6816 35.5811 12.1466 34.282 11.8937 34.0568C11.5847 33.7818 11.1736 33.7894 10.8875 34.0757Z" fill="#1E84B5"/>
<path opacity="0.9" fill-rule="evenodd" clip-rule="evenodd" d="M13.3016 1.17833C12.391 1.39304 11.2267 2.20856 10.5604 3.09835C9.24779 4.85149 8.36719 8.18289 8.36719 11.3957C8.36719 12.4235 8.37288 12.4528 8.60907 12.6385L8.85096 12.8288H20.8939H32.9367L33.1364 12.6164C33.4098 12.3252 33.4038 11.823 33.1235 11.5596L32.911 11.3601H21.3821H9.85338L9.89597 10.7863C10.2176 6.45885 11.3163 3.54118 12.9111 2.77908C13.4662 2.51388 14.27 2.49084 14.9253 2.72134C15.2253 2.82691 15.5069 2.94937 15.551 2.99352C15.5968 3.03933 15.4416 3.18455 15.1892 3.33197C13.9439 4.05919 13.57 4.5112 13.7847 5.02957C14.0213 5.6011 14.5328 5.63626 15.1976 5.12679C16.346 4.24673 17.5095 3.80427 18.6943 3.79729C19.9911 3.78958 21.0516 4.24618 22.3662 5.37813C22.6691 5.63892 23.2475 6.0163 23.6514 6.21669C25.1003 6.93565 26.3412 6.93243 27.8224 6.20604C28.4973 5.87512 28.7398 5.68179 29.7043 4.70498C31.5095 2.87685 32.0287 2.54316 33.1735 2.47478C33.8033 2.43714 33.9386 2.45963 34.3782 2.67471C34.9242 2.94184 35.5584 3.5656 35.9319 4.20294C36.6829 5.48461 37.3678 8.13323 37.6816 10.9699L37.7247 11.3601H36.3667C35.171 11.3601 34.983 11.3808 34.794 11.5338C34.4906 11.7796 34.4906 12.4093 34.794 12.655C34.9893 12.8132 35.1815 12.8288 36.9303 12.8288H38.8521L39.0911 12.5898L39.3302 12.3507L39.2723 11.1899C39.1752 9.24535 38.8138 7.46219 38.114 5.47534C37.4283 3.52888 36.3505 2.13348 35.0274 1.47961C34.438 1.18833 34.2209 1.13114 33.5744 1.09718C33.1564 1.07524 32.5983 1.1037 32.3342 1.16034C31.7514 1.28527 30.9524 1.65329 30.5759 1.97017L30.2983 2.2037L29.6829 1.92611C28.8506 1.55066 28.3004 1.38506 27.3342 1.21899C25.1299 0.840057 22.7138 1.24543 20.9942 2.28255L20.3886 2.64781L19.8325 2.53839C19.4869 2.47046 18.8986 2.44898 18.2778 2.48175L17.2789 2.53444L16.8385 2.18369C15.7217 1.29454 14.4011 0.919094 13.3016 1.17833ZM24.9824 2.60338C24.3048 2.68003 23.5366 2.83994 22.9629 3.02363C21.9328 3.35355 21.9426 3.30985 22.7513 3.97336C24.9126 5.74642 26.4539 5.71135 28.5721 3.8409L29.1346 3.34418L28.8857 3.21374C28.173 2.84031 25.9545 2.49341 24.9824 2.60338ZM33.4655 4.15383C33.1621 4.45722 33.1815 4.59987 33.7431 6.18842C33.9781 6.85294 34.2726 7.88565 34.3978 8.48334C34.6481 9.67973 34.7843 9.89132 35.3037 9.89132C35.4988 9.89132 35.671 9.81458 35.8114 9.66504C35.9994 9.46492 36.0172 9.38047 35.965 8.93636C35.834 7.82158 34.8861 4.66468 34.5429 4.19991C34.2922 3.86054 33.7807 3.8386 33.4655 4.15383ZM23.2543 14.51C23.0669 14.7095 23.0547 14.8103 23.0547 16.161V17.5996L22.7563 17.4177C22.5923 17.3176 22.3632 17.2356 22.2473 17.2354C21.9339 17.2349 21.5859 17.6285 21.5859 17.9834C21.5859 18.2387 21.7207 18.4159 22.5316 19.2269C23.8 20.4951 23.7781 20.4951 25.0465 19.2269C26.084 18.1893 26.1826 17.9609 25.8019 17.477C25.5646 17.1752 25.1119 17.1526 24.7653 17.4254L24.5234 17.6156V16.1562C24.5234 14.7494 24.5158 14.6895 24.311 14.4971C24.0198 14.2237 23.5176 14.2297 23.2543 14.51Z" fill="#0E384C"/>
</svg>

<svg xmlns="http://www.w3.org/2000/svg" width="48" height="48" fill="none" viewBox="0 0 48 48"><path fill="#1e84b5" fill-rule="evenodd" d="M13.302 1.178c-.911.215-2.075 1.03-2.742 1.92-1.312 1.753-2.193 5.085-2.193 8.298 0 1.027.006 1.057.242 1.242l.242.19h24.086l.2-.212c.273-.29.267-.793-.014-1.056l-.212-.2H9.853l.043-.574c.322-4.327 1.42-7.245 3.015-8.007.555-.265 1.359-.288 2.014-.058.3.106.582.228.626.273.046.045-.11.19-.362.338-1.245.727-1.619 1.18-1.404 1.698.236.571.748.606 1.413.097q1.72-1.32 3.496-1.33c1.297-.007 2.358.45 3.672 1.581.303.26.881.638 1.285.839 1.45.719 2.69.715 4.171-.011.675-.33.918-.524 1.882-1.501 1.805-1.828 2.325-2.162 3.47-2.23.63-.038.765-.015 1.204.2.546.267 1.18.89 1.554 1.528.75 1.282 1.436 3.93 1.75 6.767l.043.39h-1.358c-1.196 0-1.384.02-1.573.174-.303.246-.303.875 0 1.121.195.158.388.174 2.136.174h1.922l.24-.24.238-.238-.058-1.161c-.097-1.945-.458-3.728-1.158-5.715-.686-1.946-1.764-3.342-3.087-3.995-.589-.292-.806-.349-1.453-.383-.418-.022-.976.007-1.24.063-.583.125-1.382.493-1.758.81l-.278.234-.615-.278c-.832-.375-1.383-.54-2.349-.707-2.204-.379-4.62.026-6.34 1.064l-.605.365-.556-.11c-.346-.068-.934-.089-1.555-.056l-1 .052-.44-.35c-1.116-.89-2.437-1.265-3.536-1.006m11.68 1.425c-.677.077-1.445.237-2.02.42-1.03.33-1.02.287-.21.95 2.16 1.773 3.702 1.738 5.82-.132l.563-.497-.25-.13c-.712-.374-2.93-.72-3.903-.61m8.484 1.55c-.304.304-.285.447.277 2.035.235.665.53 1.698.655 2.295.25 1.197.386 1.408.906 1.408a.68.68 0 0 0 .507-.226c.188-.2.206-.285.154-.729-.131-1.114-1.079-4.271-1.422-4.736-.25-.34-.762-.361-1.078-.046M23.254 14.51c-.187.2-.2.3-.2 1.651V17.6l-.298-.182c-.164-.1-.393-.182-.509-.183-.313 0-.661.393-.661.748 0 .256.135.433.946 1.244 1.268 1.268 1.246 1.268 2.515 0 1.037-1.038 1.136-1.266.755-1.75-.237-.302-.69-.324-1.037-.052l-.242.19v-1.459c0-1.407-.007-1.466-.212-1.659-.291-.273-.793-.267-1.057.013m-5.046 7.317c-1.26.33-2.482 1.151-3.215 2.162l-.427.59h-5.8l-.2.212c-.163.175-.199.322-.199.83 0 1.341.317 3.353.783 4.979.448 1.56.827 2.027 1.438 1.774a.8.8 0 0 0 .404-.413c.112-.266.101-.364-.106-.97-.449-1.315-.797-2.922-.987-4.553l-.046-.39h27.898l-.047.298a20 20 0 0 0-.106 1.03c-.125 1.546-.578 3.229-2.645 9.825-1.14 3.635-2.162 6.787-2.273 7.005-.295.58-.864.888-1.639.89-.672 0-1.186-.202-1.419-.558-.079-.12-.577-1.957-1.107-4.081-.547-2.193-1.06-4.048-1.185-4.293-.91-1.778-3.47-2.315-5.024-1.054-.896.727-.976.927-1.956 4.913-.487 1.982-.933 3.725-.99 3.874-.142.363-.583.853-.932 1.035-.68.356-2.015.074-2.435-.516-.098-.137-.662-1.54-1.253-3.117-.955-2.548-1.103-2.882-1.332-3a1.2 1.2 0 0 0-.434-.134c-.25 0-.629.323-.697.594-.079.316 2.128 6.19 2.5 6.652.71.883 1.809 1.344 3.03 1.272 1.304-.076 2.311-.737 2.821-1.85.12-.264.612-2.079 1.092-4.034s.931-3.668 1.004-3.806c.153-.293.556-.684.877-.85.337-.174 1.099-.15 1.507.046.698.336.766.512 1.794 4.676.883 3.58.966 3.856 1.306 4.366.431.645 1.22 1.212 1.919 1.38.268.064.782.096 1.188.072.926-.054 1.568-.358 2.19-1.04.39-.425.505-.645.783-1.487.499-1.517 3.8-12.246 4.103-13.335.393-1.414.634-2.984.698-4.552.058-1.383.057-1.385-.16-1.538-.192-.134-.557-.152-3.023-.152h-2.804l-.447-.592a5.9 5.9 0 0 0-2.12-1.749c-1.204-.586-1.302-.594-6.746-.59-4.534.003-4.963.017-5.581.179m.765 1.385c-.666.097-1.709.584-2.206 1.03l-.368.33 7.432.003 7.433.004-.318-.275c-.506-.438-1.716-.996-2.384-1.1-.725-.113-8.808-.106-9.589.008m-8.085 10.864c-.3.299-.287.585.063 1.472.355.9.562 1.148.954 1.148.367 0 .777-.383.777-.726 0-.389-.535-1.688-.788-1.913-.31-.275-.72-.268-1.007.019" clip-rule="evenodd"/><path fill="#0e384c" fill-rule="evenodd" d="M13.302 1.178c-.911.215-2.075 1.03-2.742 1.92-1.312 1.753-2.193 5.085-2.193 8.298 0 1.027.006 1.057.242 1.242l.242.19h24.086l.2-.212c.273-.29.267-.793-.014-1.056l-.212-.2H9.853l.043-.574c.322-4.327 1.42-7.245 3.015-8.007.555-.265 1.359-.288 2.014-.058.3.106.582.228.626.273.046.045-.11.19-.362.338-1.245.727-1.619 1.18-1.404 1.698.236.571.748.606 1.413.097q1.72-1.32 3.496-1.33c1.297-.007 2.358.45 3.672 1.581.303.26.881.638 1.285.839 1.45.719 2.69.715 4.171-.011.675-.33.918-.524 1.882-1.501 1.805-1.828 2.325-2.162 3.47-2.23.63-.038.765-.015 1.204.2.546.267 1.18.89 1.554 1.528.75 1.282 1.436 3.93 1.75 6.767l.043.39h-1.358c-1.196 0-1.384.02-1.573.174-.303.246-.303.875 0 1.121.195.158.388.174 2.136.174h1.922l.24-.24.238-.238-.058-1.161c-.097-1.945-.458-3.728-1.158-5.715-.686-1.946-1.764-3.342-3.087-3.995-.589-.292-.806-.349-1.453-.383-.418-.022-.976.007-1.24.063-.583.125-1.382.493-1.758.81l-.278.234-.615-.278c-.832-.375-1.383-.54-2.349-.707-2.204-.379-4.62.026-6.34 1.064l-.605.365-.556-.11c-.346-.068-.934-.089-1.555-.056l-1 .052-.44-.35c-1.116-.89-2.437-1.265-3.536-1.006m11.68 1.425c-.677.077-1.445.237-2.02.42-1.03.33-1.02.287-.21.95 2.16 1.773 3.702 1.738 5.82-.132l.563-.497-.25-.13c-.712-.374-2.93-.72-3.903-.61m8.484 1.55c-.304.304-.285.447.277 2.035.235.665.53 1.698.655 2.295.25 1.197.386 1.408.906 1.408a.68.68 0 0 0 .507-.226c.188-.2.206-.285.154-.729-.131-1.114-1.079-4.271-1.422-4.736-.25-.34-.762-.361-1.078-.046M23.254 14.51c-.187.2-.2.3-.2 1.651V17.6l-.298-.182c-.164-.1-.393-.182-.509-.183-.313 0-.661.393-.661.748 0 .256.135.433.946 1.244 1.268 1.268 1.246 1.268 2.515 0 1.037-1.038 1.136-1.266.755-1.75-.237-.302-.69-.324-1.037-.052l-.242.19v-1.459c0-1.407-.007-1.466-.212-1.659-.291-.273-.793-.267-1.057.013" clip-rule="evenodd" opacity=".9"/></svg>
